X:100
T:Lads of Laois, The
R:reel
H:Originally Scottish: "The Lads of Leith"
D:Arty McGlynn & Nollaig Casey: Lead the Knave.
Z:id:hn-reel-100
M:C|
K:Edor
EB,~B,2 EGFE|DA,~A,2 DEFD|GEED EFGA|~B2ec dBAF|
EB,~B,2 EGFE|DA,~A,2 DEFD|~E2 BE dBAF|1DEFA BAFD:|2DEFA BE~E2|
|: eB~B2 egfe|defa gfed|(3Bcd ef ~g3e|fgaf gfed|
eB~B2 GBFB|EBBA (3Bcd ef|gbge (3fga fd|1 efed BABd:|2 efed BAFD||
